X: 22
T: Farewell To Ireland
Z: Makenzie
S: https://thesession.org/tunes/33#setting53446
R: reel
M: 4/4
L: 1/8
K: Ador
|:~A3c e3f|gedB GBdB|~A3c e3f|gedg eAAG|
~A3c e3f|gedB d2 g2|edeg a2 ba|gedB BA A2:|
K:AMix
|:~a3g agef|g3a gede|~a3g agef|gedB BA A2|
agef gage|~d3B GABd|cAdA (3Bcd ef|gedB BA A2:|
|:eABA eABA|~d3B GABd|eABA eAAf|gedB BA A2|
eABA eABA|~d3B GABd|cAdA (3Bcd ef|gedB BA A2:|
|:aece aece|gdBd gdBd|aece ~a3f|gedB BA A2|
agef g3e|dedB GABd|cAdA (3Bcd ef|gedB BA A2:|

